svg/pin.svg

<svg xmlns="http://www.w3.org/2000/svg" viewBox="0 0 61 61" enable-background="new 0 0 61 61"><style type="text/css">.st0{fill:#343434;}</style><title>pin</title><desc>Created with Sketch.</desc><path class="st0" d="M39 .2l-.3.3c-2.6 2.6-4 6.1-4.1 9.7l-10.6 10.6c-6.3-1.5-13-.2-18.2 4.2l13.4 13.4-18.4 18.4c-.8.8-.8 2 0 2.8.8.8 2 .8 2.8 0l18.4-18.4 13.3 13.3c4.4-5.3 5.8-12.2 4.3-18.3l10.4-10.4c3.6-.1 7.1-1.5 9.8-4.1l.3-.3-21.1-21.2zm10.9 21.7h-1.6l-13 13.1.5 2.2c.9 3.7.5 7.6-1.1 11.1l-9.8-9.8-2.8-2.8-9.9-9.9c3.4-1.6 7.2-1.9 10.9-1l2.2.5 13.3-13.3v-1.6c0-1.4.3-2.8.9-4l14.6 14.6c-1.3.5-2.7.8-4.2.9z"/></svg>

<svg xmlns="http://www.w3.org/2000/svg" viewBox="0 0 61 61"><path d="M39 .2l-.3.3c-2.6 2.6-4 6.1-4.1 9.7L24 20.8c-6.3-1.5-13-.2-18.2 4.2l13.4 13.4L.8 56.8c-.8.8-.8 2 0 2.8.8.8 2 .8 2.8 0L22 41.2l13.3 13.3c4.4-5.3 5.8-12.2 4.3-18.3L50 25.8c3.6-.1 7.1-1.5 9.8-4.1l.3-.3L39 .2zm10.9 21.7h-1.6L35.3 35l.5 2.2c.9 3.7.5 7.6-1.1 11.1l-9.8-9.8-2.8-2.8-9.9-9.9c3.4-1.6 7.2-1.9 10.9-1l2.2.5L38.6 12v-1.6c0-1.4.3-2.8.9-4L54.1 21c-1.3.5-2.7.8-4.2.9z" fill="#343434"/></svg>
